X: 7539
T: Cock And The Hen, The
R: slip jig
M: 9/8
K: Amajor
F3FEFc3|F3FEF AFD|F3FEFc2d|edA BAF AFE:|
ecA ABc d2f|ecA ABc BAF|ecA ABc d3|edA BAF AFE:|

